assets/icons/quality.svg

<svg width="80" height="86" viewBox="0 0 80 86" fill="none" xmlns="http://www.w3.org/2000/svg">
    <path fill-rule="evenodd" clip-rule="evenodd"
          d="M29.3967 32.0957L39.9091 26.6127L50.4216 32.0957L48.4144 20.4842L56.9196 12.2588L45.1663 10.5648L39.9091 0L34.652 10.5648L22.8987 12.2588L31.4039 20.4842L29.3967 32.0957ZM3.28371 36.4163L8.59609 33.6455L13.9085 36.4163L12.8941 30.5485L17.1922 26.3918L11.2527 25.5358L8.59609 20.197L5.93945 25.5358L0 26.3918L4.29805 30.5485L3.28371 36.4163ZM71.4039 33.6455L66.0915 36.4163L67.1059 30.5485L62.8078 26.3918L68.7473 25.5358L71.4039 20.197L74.0606 25.5358L80 26.3918L75.702 30.5485L76.7163 36.4163L71.4039 33.6455ZM75.2345 71.4061C73.9191 70.0793 72.2747 69.416 70.3016 69.416H47.2814L40.3753 66.7625L41.3619 63.7774L47.2814 66.0992H56.4895C57.476 66.0992 58.7915 65.4358 59.4492 64.7725C60.1069 64.1091 60.4358 63.1141 60.4358 62.119C60.4358 60.4606 59.4492 59.1339 57.8049 58.4705L33.7981 49.5152H27.5498V79.3664L50.57 86L76.8788 76.0496C76.8788 74.3912 76.2211 72.7328 75.2345 71.4061ZM20.9726 49.5152H7.81818V86H20.9726V49.5152Z"
          fill="#FD5B33"/>
</svg>

<svg xmlns="http://www.w3.org/2000/svg" width="80" height="86" fill="none"><path fill="#FD5B33" fill-rule="evenodd" d="m29.397 32.096 10.512-5.483 10.513 5.483-2.008-11.612 8.506-8.225-11.754-1.694L39.91 0l-5.257 10.565-11.753 1.694 8.505 8.225-2.007 11.612Zm-26.113 4.32 5.312-2.77 5.313 2.77-1.015-5.867 4.298-4.157-5.94-.856-2.656-5.339-2.657 5.339L0 26.392l4.298 4.157-1.014 5.867Zm68.12-2.77-5.313 2.77 1.015-5.867-4.298-4.157 5.94-.856 2.656-5.339 2.657 5.339 5.939.856-4.298 4.157 1.014 5.867-5.312-2.77Zm3.83 37.76c-1.315-1.327-2.96-1.99-4.932-1.99h-23.02l-6.907-2.653.987-2.986 5.92 2.322h9.208c.986 0 2.301-.663 2.96-1.327.657-.663.986-1.658.986-2.653 0-1.658-.987-2.985-2.631-3.648l-24.007-8.956H27.55v29.851L50.57 86l26.309-9.95c0-1.659-.658-3.317-1.645-4.644Zm-54.261-21.89H7.818V86h13.155V49.515Z" clip-rule="evenodd"/></svg>
